X:1
T:My Heart Is Fixed on Jesus
T:My Heart Is Fixed on Jesus
T:William J. Ramsay
T:Lavinia Eliza Brauff, 1912
T:Public Domain Courtesy of the Cyber Hymnal™
T:Public Domain Courtesy of the Cyber Hymnal™
C:William J. Ramsay
Z:Public Domain
Z:Courtesy of the Cyber Hymnal™
%%score ( 1 2 ) ( 3 4 )
L:1/8
M:4/4
K:Bb
V:1 treble 
V:2 treble 
V:3 bass 
V:4 bass 
V:1
 [DF]2 | [Fd]2 [Bd]2 [Ad]2 [Gd]2 | [Fd]4 [DB]2 [FB]2 | [GB]2 [Gc]2 [GB]2 [EG]2 | [DF]6 F2 | %5
w: 1.~My|heart is fixed on|Je- sus, The|sun of all my|thought; What|
w: 2.~My|heart is fixed on|Je- sus, With-|out Him life is|vain; His|
w: 3.~My|heart is fixed on|Je- sus, Since|I to Him be-|long, For|
 [Fc]2 [Fc]2 [Ec]2 [Dd]2 | [DB]2 [DB]2 [DB]2 [Fc]2 | [Fd]2 [Fd]2 [Fe]2 [Fd]2 | [Fc]6 F2 | %9
w: won- drous work of|grace His love With-|in my soul hath|wrought! He|
w: prom- ise is thro’|all my days To|com- fort and sus-|tain; I|
w: ev- ery day He|gives me hope, For|ev- ery night a|song; Thro’|
 [Fd]2 [Bd]2 [Ad]2 [Gd]2 | [Fd]4 [DB]2 [FB]2 | [GB]2 [Gc]2 [GB]2 [EG]2 | [DF]6 [DF]2 | %13
w: found me poor and|help- less, By|ev- ery sin op-|pressed, And|
w: love to hear Him|whis- per— “Be|not a- fraid— ’tis|I!” As|
w: tri- al and deep|wa- ter His|pro- mis- es are|sweet; And|
 [FB]2 [FB]2 [FB]2 [Fc]2 | [Fd]2 [Fe]2 [Ff]2 [Ge]2 | [Fd]3 [Fd] [Ec]2 [Ec]2 | [DB]6 || %17
w: died that I might|be re- deemed, And|have e- ter- nal|rest.|
w: o’er the storm- y|sea I sail, Be-|neath a cloud- ed|sky.|
w: shel- tered ’neath His|wings of love I|find a safe re-|treat.|
"^Refrain" [_AB]2 | [GB]2 [Ge]2 [Ge]2 [Ge]2 | [Ge]4 [GB]2 [Gc]2 | [Fd]2 [Bd]2 [Ad]2 [Gd]2 | %21
w: ||||
w: My|heart is fixed on|Je- sus, No|oth- er hope have|
w: ||||
 [Fd]6 [Fd]2 | [Ff]2 [Fd]2 [Fe]2 [Fd]2 | [Gc]2 [GB]2 [FA]2 [EG]2 | [DF]2 [Fd]2 [Fd]2 [Ec]2 | %25
w: ||||
w: I; I|could not live with-|out Him, And with-|out Him dare not|
w: ||||
 [DB]6 |] %26
w: |
w: die.|
w: |
V:2
 x2 | x8 | x8 | x8 | x6 F2 | x8 | x8 | x8 | x6 F2 | x8 | x8 | x8 | x8 | x8 | x8 | x8 | x6 || x2 | %18
 x8 | x8 | x8 | x8 | x8 | x8 | x8 | x6 |] %26
V:3
 [B,,B,]2 | [B,,B,]2 [B,,B,]2 [B,,B,]2 [B,,B,]2 | [B,,B,]4 [B,,F,]2 [D,B,]2 | %3
 [E,E]2 [E,E]2 [E,E]2 [E,B,]2 | [B,,B,]6 [D,B,]2 | [F,A,]2 [F,A,]2 [F,A,]2 [^F,A,]2 | %6
 [G,B,]2 [G,B,]2 [G,B,]2 [F,A,]2 | B,2 B,2 [A,C]2 B,2 | [F,A,]6 [F,A,]2 | %9
 [B,,B,]2 [B,,B,]2 [B,,B,]2 [B,,B,]2 | [B,,B,]4 [B,,F,]2 [D,B,]2 | [E,E]2 [E,E]2 [E,E]2 [E,B,]2 | %12
 [B,,B,]6 [B,,B,]2 | [D,B,]2 [D,B,]2 [D,B,]2 [F,A,]2 | [B,,B,]2 [C,A,]2 [D,B,]2 [E,B,]2 | %15
 [F,B,]3 [F,B,] [F,A,]2 [F,A,]2 | [B,,B,]6 || [B,D]2 | [E,E]2 [E,B,]2 [E,B,]2 [E,B,]2 | %19
 [E,B,]4 [E,B,]2 [E,B,]2 | [B,,B,]2 [B,,B,]2 [B,,B,]2 [B,,B,]2 | [B,,B,]6 [B,,B,]2 | %22
 [B,D]2 [B,,B,]2 [C,A,]2 [D,B,]2 | [E,E]2 [E,E]2 [E,E]2 [E,B,]2 | [F,B,]2 [F,B,]2 [F,B,]2 [F,A,]2 | %25
 [B,,B,]6 |] %26
V:4
 x2 | x8 | x8 | x8 | x8 | x8 | x8 | B,2 B,2 B,2 x2 | x8 | x8 | x8 | x8 | x8 | x8 | x8 | x8 | x6 || %17
 x2 | x8 | x8 | x8 | x8 | x8 | x8 | x8 | x6 |] %26

